svgs/sharp-solid/chart-bar.svg

<svg xmlns="http://www.w3.org/2000/svg" viewBox="0 0 512 512"><!--! Font Awesome Pro 6.6.0 by @fontawesome - https://fontawesome.com License - https://fontawesome.com/license (Commercial License) Copyright 2024 Fonticons, Inc. --><path d="M64 32l0 32 0 352 416 0 32 0 0 64-32 0L32 480 0 480l0-32L0 64 0 32l64 0zm64 64l32 0 192 0 32 0 0 64-32 0-192 0-32 0 0-64zm32 96l128 0 32 0 0 64-32 0-128 0-32 0 0-64 32 0zm0 96l256 0 32 0 0 64-32 0-256 0-32 0 0-64 32 0z"/></svg>

<svg xmlns="http://www.w3.org/2000/svg" viewBox="0 0 512 512"><!--! Font Awesome Pro 6.5.2 by @fontawesome - https://fontawesome.com License - https://fontawesome.com/license (Commercial License) Copyright 2024 Fonticons, Inc. --><path d="M64 32V64 416H480h32v64H480 32 0V448 64 32H64zm64 64l32 0 192 0 32 0v64l-32 0-192 0-32 0 0-64zm32 96H288h32v64H288 160 128V192h32zm0 96H416h32v64H416 160 128V288h32z"/></svg>
